Newaita-dark/apps/48/okteta.svg

<svg height="48pt" viewBox="0 0 48 48" width="48pt" xmlns="http://www.w3.org/2000/svg" xmlns:xlink="http://www.w3.org/1999/xlink"><linearGradient id="a" gradientUnits="userSpaceOnUse" x1="23.81478" x2="23.81478" y1="42.0509045" y2="44.03547050005"><stop offset="0" stop-opacity=".27451"/><stop offset="1" stop-opacity="0"/></linearGradient><linearGradient id="b"><stop offset="0" stop-opacity=".313726"/><stop offset=".222222" stop-opacity=".27451"/><stop offset="1" stop-opacity="0"/></linearGradient><radialGradient id="c" cx="450.908936" cy="189.579361" gradientTransform="matrix(.00000026 -.117199 -.210958 -.00000015 73.234568 95.392999)" gradientUnits="userSpaceOnUse" r="21.166656" xlink:href="#b"/><radialGradient id="d" cx="450.908936" cy="189.579361" gradientTransform="matrix(-.00000026 .117199 .210958 .00000015 -26.597299 -11.291218)" gradientUnits="userSpaceOnUse" r="21.166656" xlink:href="#b"/><radialGradient id="e" cx="450.908936" cy="189.579361" gradientTransform="matrix(-.00000026 -.117199 .210958 -.00000015 -26.597299 95.392999)" gradientUnits="userSpaceOnUse" r="21.166656" xlink:href="#b"/><radialGradient id="f" cx="450.908936" cy="189.579361" gradientTransform="matrix(.00000026 .117199 -.210958 .00000015 73.234565 -11.291219)" gradientUnits="userSpaceOnUse" r="21.166656" xlink:href="#b"/><linearGradient id="g" gradientUnits="userSpaceOnUse" x1="23.318674" x2="23.318674" y1="42.05096580616" y2="4.34417266504"><stop offset="0" stop-color="#424242"/><stop offset="1" stop-color="#616161"/></linearGradient><linearGradient id="h" gradientUnits="userSpaceOnUse" x1="23.318674" x2="23.318674" y1="42.05096580616" y2="4.34417266504"><stop offset="0" stop-color="#26a69a"/><stop offset="1" stop-color="#4db6ac"/></linearGradient><filter id="i" height="100%" width="100%" x="0%" y="0%"><feColorMatrix in="SourceGraphic" type="matrix" values="0 0 0 0 1 0 0 0 0 1 0 0 0 0 1 0 0 0 1 0"/></filter><mask id="j"><g filter="url(#i)"><path d="m0 0h48v48h-48z" fill-opacity=".99"/></g></mask><mask id="k"><g filter="url(#i)"><path d="m0 0h48v48h-48z" fill-opacity=".99"/></g></mask><mask id="l"><g filter="url(#i)"><path d="m0 0h48v48h-48z" fill-opacity=".99"/></g></mask><linearGradient id="m"><stop offset="0" stop-color="#e0e0e0"/><stop offset="1" stop-color="#bdbdbd"/></linearGradient><linearGradient id="n" gradientUnits="userSpaceOnUse" x1="700.00006150918" x2="700.00006150918" xlink:href="#m" y1="1695.118238" y2="175.11810098163"/><linearGradient id="o" gradientUnits="userSpaceOnUse" x1="269.875" x2="269.875" xlink:href="#m" y1="233.499995" y2="-168.666661"/><path d="m12.898438 42.050781h20.839843v1.984375h-20.839843zm0 0" fill="url(#a)"/><path d="m33.738281 42.050781h3.96875v-1.984375h-3.96875zm0 0" fill="url(#c)"/><path d="m12.898438 42.050781h-3.96875v1.984375h3.96875zm0 0" fill="url(#d)"/><path d="m12.898438 42.050781h-3.96875v-1.984375h3.96875zm0 0" fill="url(#e)"/><path d="m33.738281 42.050781h3.96875v1.984375h-3.96875zm0 0" fill="url(#f)"/><path d="m10.914062 4.34375c-1.097656 0-1.984374.886719-1.984374 1.984375v33.738281c0 1.097656.886718 1.984375 1.984374 1.984375h24.808594c1.097656 0 1.984375-.886719 1.984375-1.984375v-26.792968l-8.929687-8.929688zm19.847657 0 6.945312 6.945312v-4.960937c0-1.097656-.886719-1.984375-1.984375-1.984375zm0 0" fill="url(#g)"/><path d="m30.761719 4.34375 6.945312 6.945312v-4.960937c0-1.097656-.886719-1.984375-1.984375-1.984375zm0 0" fill="url(#h)"/><path d="m10.914062 4.34375c-1.097656 0-1.984374.886719-1.984374 1.984375v.496094c0-1.097657.886718-1.984375 1.984374-1.984375h17.863282l8.929687 8.929687v-.496093l-8.929687-8.929688zm19.847657 0 .496093.496094h4.464844c1.097656 0 1.984375.886718 1.984375 1.984375v-.496094c0-1.097656-.886719-1.984375-1.984375-1.984375zm0 0" fill="#fff" fill-opacity=".392157"/><path d="m30.761719 4.34375 6.945312 6.945312v-.734374l-6.210937-6.210938zm-21.832031 34.984375v.738281c0 1.097656.886718 1.984375 1.984374 1.984375h24.808594c1.097656 0 1.984375-.886719 1.984375-1.984375v-.738281c0 1.101563-.886719 1.988281-1.984375 1.988281h-24.808594c-1.097656 0-1.984374-.886718-1.984374-1.988281zm0 0" fill-opacity=".235294"/><path d="m10.914062 4.203125c-1.175781 0-2.125.949219-2.125 2.125v33.738281c0 1.175782.949219 2.125 2.125 2.125h24.808594c1.175782 0 2.125-.949218 2.125-2.125v-26.792968c0-.035157-.015625-.070313-.042968-.097657l-8.929688-8.929687c-.027344-.027344-.0625-.042969-.097656-.042969zm19.847657 0c-.058594 0-.109375.035156-.132813.085937-.019531.054688-.007812.113282.03125.15625l6.945313 6.945313c.042969.039063.101562.050781.15625.03125.050781-.023437.085937-.074219.085937-.132813v-4.960937c0-1.175781-.949218-2.125-2.125-2.125zm-19.847657.28125h17.804688l8.847656 8.847656v26.734375c0 1.023438-.820312 1.84375-1.84375 1.84375h-24.808594c-1.023437 0-1.84375-.820312-1.84375-1.84375v-33.738281c0-1.023437.820313-1.84375 1.84375-1.84375zm20.1875 0h4.621094c1.023438 0 1.84375.820313 1.84375 1.84375v4.621094zm0 0" fill="#212121"/><image height="48" mask="url(#j)" width="48" xlink:href="data:image/png;base64,iVBORw0KGgoAAAANSUhEUgAAADAAAAAwCAYAAABXAvmHAAAABmJLR0QA/wD/AP+gvaeTAAACEklEQVRoge3WTWsTURQG4PeOJZkiKFXUlV0JrnRTCpoKpRIMQzeaSjba0o261pXL/gNT/4AoLYRWklKKyUYXgooUIYhQdNOF0FhBkC5SxuSe14UftGEmiYXeVDgPzGbm3pn3zP2YAZRSSimllFJKKaWU+g+ZXgdolaksHENDTh/Z9j4s5nK2U3vPRahuXVkuBNKQdQGq3/vl5fjK/ECnPgdmBNIr8xmKtwQY/+9JogqbSD/PZr/F9TsQBVxeLgQkiwD81msEVk+Ehy4t5nI/ovr2fAqNlgqBFSkK6QuJ1oPk8NeEHY/r3+cybKuR0lwgxhZB+O3mgoHZjLvWswJGSnMBDIpC/po2jGlIPniVvfE67j49WQMXnz7JwDNLiJjzuxjm31ydvAdj4spzX8CF0uOAYiIX7C6Gs2+vTd1tFx5wXMCZZw+TA/WjnwAMdmg6uzrROTzgcBcaWnh07lTjcKIpNhByM2rHERIC6To84LAAAe7XQ69ST/Jzg3ZUwJqA2HlYMP9uYrrr8ICrAmZmPAHTAqb80FTCJDYsZUyI2p83bwX56vXptgs2ipMCzp8dHBby5O+wqUSISpjEBiFjQtaEzL/P/Xt4wNF3QGADcsd+QaT6tlEO+03gbTWH1m7e/rKX8ICjEbBAJuIX4bhXt+m1yTu1vYYHXI2AcAtAnR5egCibpil/nLq17uLZSim1v34CJRsQOvqazhUAAAAASUVORK5CYII="/><image height="48" mask="url(#k)" width="48" xlink:href="data:image/png;base64,iVBORw0KGgoAAAANSUhEUgAAADAAAAAwCAYAAABXAvmHAAAABmJLR0QA/wD/AP+gvaeTAAAAwElEQVRoge3ULQ7CQBDF8RmCAtMDoJDU9gokWASecJIehZv0Ak2aFa9tavYIuLWDqiEhXQL0I3k/veIv3qwIERERERERERERfc85t3XO7fI8X8W8138HfQJAqqpHVX2Y2TaEcM+yLEzdFQVAWtf12cxURMR7n7RteyvLcjN126A+Xl4WUVVV0jTN1cyi5jSJd/E9733Sdd1+5Kw4Q/G92IMeFYADgIvM7COJsvT4qNnMUlEUawAnWWI8EREREf3eEyC7WE7Rsp2wAAAAAElFTkSuQmCC"/><path d="m26.78125 35.464844c-.113281.113281-.203125.253906-.25.425781l-1.40625 4.914063c-.066406.238281-.042969.46875.046875.667968l1.359375-4.753906c.046875-.171875.136719-.316406.25-.429688l4.371094 4.371094.109375-.035156c.171875-.046875.316406-.136719.429687-.25zm0 0" fill="#d7d7d7" fill-opacity=".588235" fill-rule="evenodd"/><path d="m41.382812 29.601562c-.054687.421876-.242187.832032-.570312 1.15625l-8.066406 8.066407-4.664063-4.660157-.25.246094 4.914063 4.910156 8.066406-8.066406c.453125-.453125.644531-1.066406.570312-1.652344zm-9.984374 10.480469c-.042969.019531-.085938.035157-.136719.046875l-4.910157 1.40625c-.566406.160156-1.097656-.195312-1.234374-.703125-.1875.734375.496093 1.410157 1.234374 1.199219l4.910157-1.40625c.171875-.046875.316406-.136719.429687-.25zm0 0" fill-opacity=".235294"/><image height="48" mask="url(#l)" width="48" xlink:href="data:image/png;base64,iVBORw0KGgoAAAANSUhEUgAAADAAAAAwCAYAAABXAvmHAAAABmJLR0QA/wD/AP+gvaeTAAABHUlEQVRoge3WP0vFMBSH4SSD4O7gn5ac/Kp1qK6XO7noosVFJz+pOLkLfodQOri53UJrg1NBCrHhDk0L5xl7zvAGEqgQjDHGGGOMMcYYY4ytkIwdMJZl2VXf92fOuY+qqr6n9tUcUaEAPHRdt7PWvimlNgAuYjcFA1BqrU/+fjPG3BhjLmM1BQNQEtGxZ3aX5/nR3E3B/osfaK3vfbOobwBA6Zz7tNZ++XaKojhQSv345tEOEBIvhFBN0zxrrd9nCwsBoEzT9HRiTQJ4SpLkcJaoUMaYx6k7L4RQAF4WF09EBOB2Ym2Z8QMi2gK49oyXeW3GPIdYR/xgdIi946P+zBHRVkq5k1Ket237Wtd1E7NnL8aYzWquDWOMscX5Bd/PR5cbxlNgAAAAAElFTkSuQmCC"/><g stroke="#212121" stroke-linecap="round" stroke-linejoin="round"><path d="m211.679933 64.180339c0 1.708678.382979 3.446816 1.325698 5.096574l26.455053 47.666231c4.036016 7.217692 14.464845 7.217692 18.50086 0l26.425593-47.636771c.942719-1.649758 1.355159-3.417356 1.355159-5.126034zm0 0" fill="none" stroke-width="3" transform="matrix(.0662976 .0662976 -.0662976 .0662976 17.002382 17.175972)"/><path d="m599.94274 415.078494c-22.04514 0-39.996183 17.951043-39.996183 39.996183v359.965644c0 22.202605 17.951043 40.153648 39.996183 40.153648h219.979004c22.202606 0 40.153648-17.951043 40.153648-40.153648v-359.965644c0-22.04514-17.951042-39.996183-40.153648-39.996183zm59.994274 79.992365h99.990457c11.180035 0 19.998091 8.975522 19.998091 19.998092v239.977096c0 11.180035-8.818056 19.998091-19.998091 19.998091h-99.990457c-11.02257 0-19.998091-8.818056-19.998091-19.998091v-239.977096c0-11.02257 8.975521-19.998092 19.998091-19.998092zm0 0" fill="url(#n)" stroke-width="11.338583" transform="scale(.0248071)"/><path d="m259.308571-105.177154c5.832776 0 10.582322 4.749546 10.582322 10.582323v95.240904c0 5.87444-4.749546 10.623986-10.582322 10.623986-5.874439 0-10.582323-4.749546-10.582323-10.623986v-95.240904c0-5.832777 4.707884-10.582323 10.582323-10.582323zm0 0" fill="url(#o)" stroke-width="3" transform="matrix(.093759 0 0 .093759 0 20.158175)"/></g></svg>

<?xml version="1.0" encoding="UTF-8"?>
<svg xmlns="http://www.w3.org/2000/svg" xmlns:xlink="http://www.w3.org/1999/xlink" width="48pt" height="48pt" viewBox="0 0 48 48" version="1.1">
<defs>
<linearGradient id="linear0" gradientUnits="userSpaceOnUse" x1="254" y1="233.5" x2="254" y2="254.666672" gradientTransform="matrix(0.093759,0,0,0.093759,-0.00000572259,20.158178)">
<stop offset="0" style="stop-color:rgb(0%,0%,0%);stop-opacity:0.27451;"/>
<stop offset="1" style="stop-color:rgb(0%,0%,0%);stop-opacity:0;"/>
</linearGradient>
<radialGradient id="radial0" gradientUnits="userSpaceOnUse" cx="450.908936" cy="189.579361" fx="450.908936" fy="189.579361" r="21.166656" gradientTransform="matrix(0.000000261256,-0.117199,-0.210958,-0.000000152308,73.234568,95.392999)">
<stop offset="0" style="stop-color:rgb(0%,0%,0%);stop-opacity:0.313726;"/>
<stop offset="0.222222" style="stop-color:rgb(0%,0%,0%);stop-opacity:0.27451;"/>
<stop offset="1" style="stop-color:rgb(0%,0%,0%);stop-opacity:0;"/>
</radialGradient>
<radialGradient id="radial1" gradientUnits="userSpaceOnUse" cx="450.908936" cy="189.579361" fx="450.908936" fy="189.579361" r="21.166656" gradientTransform="matrix(-0.000000261256,0.117199,0.210958,0.000000152308,-26.597299,-11.291218)">
<stop offset="0" style="stop-color:rgb(0%,0%,0%);stop-opacity:0.313726;"/>
<stop offset="0.222222" style="stop-color:rgb(0%,0%,0%);stop-opacity:0.27451;"/>
<stop offset="1" style="stop-color:rgb(0%,0%,0%);stop-opacity:0;"/>
</radialGradient>
<radialGradient id="radial2" gradientUnits="userSpaceOnUse" cx="450.908936" cy="189.579361" fx="450.908936" fy="189.579361" r="21.166656" gradientTransform="matrix(-0.000000261256,-0.117199,0.210958,-0.000000152308,-26.597299,95.392999)">
<stop offset="0" style="stop-color:rgb(0%,0%,0%);stop-opacity:0.313726;"/>
<stop offset="0.222222" style="stop-color:rgb(0%,0%,0%);stop-opacity:0.27451;"/>
<stop offset="1" style="stop-color:rgb(0%,0%,0%);stop-opacity:0;"/>
</radialGradient>
<radialGradient id="radial3" gradientUnits="userSpaceOnUse" cx="450.908936" cy="189.579361" fx="450.908936" fy="189.579361" r="21.166656" gradientTransform="matrix(0.000000261256,0.117199,-0.210958,0.000000152308,73.234565,-11.291219)">
<stop offset="0" style="stop-color:rgb(0%,0%,0%);stop-opacity:0.313726;"/>
<stop offset="0.222222" style="stop-color:rgb(0%,0%,0%);stop-opacity:0.27451;"/>
<stop offset="1" style="stop-color:rgb(0%,0%,0%);stop-opacity:0;"/>
</radialGradient>
<linearGradient id="linear1" gradientUnits="userSpaceOnUse" x1="940" y1="1695.118164" x2="940" y2="175.118118" gradientTransform="matrix(0.0248071,0,0,0.0248071,0,0.00000000000000282)">
<stop offset="0" style="stop-color:rgb(25.882354%,25.882354%,25.882354%);stop-opacity:1;"/>
<stop offset="1" style="stop-color:rgb(38.039216%,38.039216%,38.039216%);stop-opacity:1;"/>
</linearGradient>
<linearGradient id="linear2" gradientUnits="userSpaceOnUse" x1="940" y1="1695.118164" x2="940" y2="175.118118" gradientTransform="matrix(0.0248071,0,0,0.0248071,0,0.00000000000000282)">
<stop offset="0" style="stop-color:rgb(14.901961%,65.098041%,60.392159%);stop-opacity:1;"/>
<stop offset="1" style="stop-color:rgb(30.19608%,71.372551%,67.450982%);stop-opacity:1;"/>
</linearGradient>
<filter id="alpha" filterUnits="objectBoundingBox" x="0%" y="0%" width="100%" height="100%">
  <feColorMatrix type="matrix" in="SourceGraphic" values="0 0 0 0 1 0 0 0 0 1 0 0 0 0 1 0 0 0 1 0"/>
</filter>
<mask id="mask0">
  <g filter="url(#alpha)">
<rect x="0" y="0" width="48" height="48" style="fill:rgb(0%,0%,0%);fill-opacity:0.99;stroke:none;"/>
  </g>
</mask>
<image id="image5" width="48" height="48" xlink:href="data:image/png;base64,iVBORw0KGgoAAAANSUhEUgAAADAAAAAwCAYAAABXAvmHAAAABmJLR0QA/wD/AP+gvaeTAAACEklEQVRoge3WTWsTURQG4PeOJZkiKFXUlV0JrnRTCpoKpRIMQzeaSjba0o261pXL/gNT/4AoLYRWklKKyUYXgooUIYhQdNOF0FhBkC5SxuSe14UftGEmiYXeVDgPzGbm3pn3zP2YAZRSSimllFJKKaWU+g+ZXgdolaksHENDTh/Z9j4s5nK2U3vPRahuXVkuBNKQdQGq3/vl5fjK/ECnPgdmBNIr8xmKtwQY/+9JogqbSD/PZr/F9TsQBVxeLgQkiwD81msEVk+Ehy4t5nI/ovr2fAqNlgqBFSkK6QuJ1oPk8NeEHY/r3+cybKuR0lwgxhZB+O3mgoHZjLvWswJGSnMBDIpC/po2jGlIPniVvfE67j49WQMXnz7JwDNLiJjzuxjm31ydvAdj4spzX8CF0uOAYiIX7C6Gs2+vTd1tFx5wXMCZZw+TA/WjnwAMdmg6uzrROTzgcBcaWnh07lTjcKIpNhByM2rHERIC6To84LAAAe7XQ69ST/Jzg3ZUwJqA2HlYMP9uYrrr8ICrAmZmPAHTAqb80FTCJDYsZUyI2p83bwX56vXptgs2ipMCzp8dHBby5O+wqUSISpjEBiFjQtaEzL/P/Xt4wNF3QGADcsd+QaT6tlEO+03gbTWH1m7e/rKX8ICjEbBAJuIX4bhXt+m1yTu1vYYHXI2AcAtAnR5egCibpil/nLq17uLZSim1v34CJRsQOvqazhUAAAAASUVORK5CYII="/>
<mask id="mask1">
  <g filter="url(#alpha)">
<rect x="0" y="0" width="48" height="48" style="fill:rgb(0%,0%,0%);fill-opacity:0.99;stroke:none;"/>
  </g>
</mask>
<image id="image8" width="48" height="48" xlink:href="data:image/png;base64,iVBORw0KGgoAAAANSUhEUgAAADAAAAAwCAYAAABXAvmHAAAABmJLR0QA/wD/AP+gvaeTAAAAwElEQVRoge3ULQ7CQBDF8RmCAtMDoJDU9gokWASecJIehZv0Ak2aFa9tavYIuLWDqiEhXQL0I3k/veIv3qwIERERERERERERfc85t3XO7fI8X8W8138HfQJAqqpHVX2Y2TaEcM+yLEzdFQVAWtf12cxURMR7n7RteyvLcjN126A+Xl4WUVVV0jTN1cyi5jSJd/E9733Sdd1+5Kw4Q/G92IMeFYADgIvM7COJsvT4qNnMUlEUawAnWWI8EREREf3eEyC7WE7Rsp2wAAAAAElFTkSuQmCC"/>
<mask id="mask2">
  <g filter="url(#alpha)">
<rect x="0" y="0" width="48" height="48" style="fill:rgb(0%,0%,0%);fill-opacity:0.99;stroke:none;"/>
  </g>
</mask>
<image id="image11" width="48" height="48" xlink:href="data:image/png;base64,iVBORw0KGgoAAAANSUhEUgAAADAAAAAwCAYAAABXAvmHAAAABmJLR0QA/wD/AP+gvaeTAAABHUlEQVRoge3WP0vFMBSH4SSD4O7gn5ac/Kp1qK6XO7noosVFJz+pOLkLfodQOri53UJrg1NBCrHhDk0L5xl7zvAGEqgQjDHGGGOMMcYYY4ytkIwdMJZl2VXf92fOuY+qqr6n9tUcUaEAPHRdt7PWvimlNgAuYjcFA1BqrU/+fjPG3BhjLmM1BQNQEtGxZ3aX5/nR3E3B/osfaK3vfbOobwBA6Zz7tNZ++XaKojhQSv345tEOEBIvhFBN0zxrrd9nCwsBoEzT9HRiTQJ4SpLkcJaoUMaYx6k7L4RQAF4WF09EBOB2Ym2Z8QMi2gK49oyXeW3GPIdYR/xgdIi946P+zBHRVkq5k1Ket237Wtd1E7NnL8aYzWquDWOMscX5Bd/PR5cbxlNgAAAAAElFTkSuQmCC"/>
<linearGradient id="linear3" gradientUnits="userSpaceOnUse" x1="185.208328" y1="233.5" x2="185.208328" y2="-168.666656" gradientTransform="matrix(3.779528,0,0,3.779528,0,812.59845)">
<stop offset="0" style="stop-color:rgb(87.843138%,87.843138%,87.843138%);stop-opacity:1;"/>
<stop offset="1" style="stop-color:rgb(74.117649%,74.117649%,74.117649%);stop-opacity:1;"/>
</linearGradient>
<linearGradient id="linear4" gradientUnits="userSpaceOnUse" x1="216.958328" y1="233.5" x2="216.958328" y2="-168.666656" gradientTransform="matrix(1,0,0,1,52.916672,-0.00000508625)">
<stop offset="0" style="stop-color:rgb(87.843138%,87.843138%,87.843138%);stop-opacity:1;"/>
<stop offset="1" style="stop-color:rgb(74.117649%,74.117649%,74.117649%);stop-opacity:1;"/>
</linearGradient>
</defs>
<g id="surface1">
<path style=" stroke:none;fill-rule:nonzero;fill:url(#linear0);" d="M 12.898438 42.050781 L 33.738281 42.050781 L 33.738281 44.035156 L 12.898438 44.035156 Z M 12.898438 42.050781 "/>
<path style=" stroke:none;fill-rule:nonzero;fill:url(#radial0);" d="M 33.738281 42.050781 L 37.707031 42.050781 L 37.707031 40.066406 L 33.738281 40.066406 Z M 33.738281 42.050781 "/>
<path style=" stroke:none;fill-rule:nonzero;fill:url(#radial1);" d="M 12.898438 42.050781 L 8.929688 42.050781 L 8.929688 44.035156 L 12.898438 44.035156 Z M 12.898438 42.050781 "/>
<path style=" stroke:none;fill-rule:nonzero;fill:url(#radial2);" d="M 12.898438 42.050781 L 8.929688 42.050781 L 8.929688 40.066406 L 12.898438 40.066406 Z M 12.898438 42.050781 "/>
<path style=" stroke:none;fill-rule:nonzero;fill:url(#radial3);" d="M 33.738281 42.050781 L 37.707031 42.050781 L 37.707031 44.035156 L 33.738281 44.035156 Z M 33.738281 42.050781 "/>
<path style=" stroke:none;fill-rule:nonzero;fill:url(#linear1);" d="M 10.914062 4.34375 C 9.816406 4.34375 8.929688 5.230469 8.929688 6.328125 L 8.929688 40.066406 C 8.929688 41.164062 9.816406 42.050781 10.914062 42.050781 L 35.722656 42.050781 C 36.820312 42.050781 37.707031 41.164062 37.707031 40.066406 L 37.707031 13.273438 L 28.777344 4.34375 Z M 30.761719 4.34375 L 37.707031 11.289062 L 37.707031 6.328125 C 37.707031 5.230469 36.820312 4.34375 35.722656 4.34375 Z M 30.761719 4.34375 "/>
<path style=" stroke:none;fill-rule:nonzero;fill:url(#linear2);" d="M 30.761719 4.34375 L 37.707031 11.289062 L 37.707031 6.328125 C 37.707031 5.230469 36.820312 4.34375 35.722656 4.34375 Z M 30.761719 4.34375 "/>
<path style=" stroke:none;fill-rule:nonzero;fill:rgb(100%,100%,100%);fill-opacity:0.392157;" d="M 10.914062 4.34375 C 9.816406 4.34375 8.929688 5.230469 8.929688 6.328125 L 8.929688 6.824219 C 8.929688 5.726562 9.816406 4.839844 10.914062 4.839844 L 28.777344 4.839844 L 37.707031 13.769531 L 37.707031 13.273438 L 28.777344 4.34375 Z M 30.761719 4.34375 L 31.257812 4.839844 L 35.722656 4.839844 C 36.820312 4.839844 37.707031 5.726562 37.707031 6.824219 L 37.707031 6.328125 C 37.707031 5.230469 36.820312 4.34375 35.722656 4.34375 Z M 30.761719 4.34375 "/>
<path style=" stroke:none;fill-rule:nonzero;fill:rgb(0%,0%,0%);fill-opacity:0.235294;" d="M 30.761719 4.34375 L 37.707031 11.289062 L 37.707031 10.554688 L 31.496094 4.34375 Z M 8.929688 39.328125 L 8.929688 40.066406 C 8.929688 41.164062 9.816406 42.050781 10.914062 42.050781 L 35.722656 42.050781 C 36.820312 42.050781 37.707031 41.164062 37.707031 40.066406 L 37.707031 39.328125 C 37.707031 40.429688 36.820312 41.316406 35.722656 41.316406 L 10.914062 41.316406 C 9.816406 41.316406 8.929688 40.429688 8.929688 39.328125 Z M 8.929688 39.328125 "/>
<path style=" stroke:none;fill-rule:nonzero;fill:rgb(12.941177%,12.941177%,12.941177%);fill-opacity:1;" d="M 10.914062 4.203125 C 9.738281 4.203125 8.789062 5.152344 8.789062 6.328125 L 8.789062 40.066406 C 8.789062 41.242188 9.738281 42.191406 10.914062 42.191406 L 35.722656 42.191406 C 36.898438 42.191406 37.847656 41.242188 37.847656 40.066406 L 37.847656 13.273438 C 37.847656 13.238281 37.832031 13.203125 37.804688 13.175781 L 28.875 4.246094 C 28.847656 4.21875 28.8125 4.203125 28.777344 4.203125 Z M 30.761719 4.203125 C 30.703125 4.203125 30.652344 4.238281 30.628906 4.289062 C 30.609375 4.34375 30.621094 4.402344 30.660156 4.445312 L 37.605469 11.390625 C 37.648438 11.429688 37.707031 11.441406 37.761719 11.421875 C 37.8125 11.398438 37.847656 11.347656 37.847656 11.289062 L 37.847656 6.328125 C 37.847656 5.152344 36.898438 4.203125 35.722656 4.203125 Z M 10.914062 4.484375 L 28.71875 4.484375 L 37.566406 13.332031 L 37.566406 40.066406 C 37.566406 41.089844 36.746094 41.910156 35.722656 41.910156 L 10.914062 41.910156 C 9.890625 41.910156 9.070312 41.089844 9.070312 40.066406 L 9.070312 6.328125 C 9.070312 5.304688 9.890625 4.484375 10.914062 4.484375 Z M 31.101562 4.484375 L 35.722656 4.484375 C 36.746094 4.484375 37.566406 5.304688 37.566406 6.328125 L 37.566406 10.949219 Z M 31.101562 4.484375 "/>
<use xlink:href="#image5" mask="url(#mask0)"/>
<use xlink:href="#image8" mask="url(#mask1)"/>
<path style=" stroke:none;fill-rule:evenodd;fill:rgb(84.313726%,84.313726%,84.313726%);fill-opacity:0.588235;" d="M 26.78125 35.464844 C 26.667969 35.578125 26.578125 35.71875 26.53125 35.890625 L 25.125 40.804688 C 25.058594 41.042969 25.082031 41.273438 25.171875 41.472656 L 26.53125 36.71875 C 26.578125 36.546875 26.667969 36.402344 26.78125 36.289062 L 31.152344 40.660156 L 31.261719 40.625 C 31.433594 40.578125 31.578125 40.488281 31.691406 40.375 Z M 26.78125 35.464844 "/>
<path style=" stroke:none;fill-rule:nonzero;fill:rgb(0%,0%,0%);fill-opacity:0.235294;" d="M 41.382812 29.601562 C 41.328125 30.023438 41.140625 30.433594 40.8125 30.757812 L 32.746094 38.824219 L 28.082031 34.164062 L 27.832031 34.410156 L 32.746094 39.320312 L 40.8125 31.253906 C 41.265625 30.800781 41.457031 30.1875 41.382812 29.601562 Z M 31.398438 40.082031 C 31.355469 40.101562 31.3125 40.117188 31.261719 40.128906 L 26.351562 41.535156 C 25.785156 41.695312 25.253906 41.339844 25.117188 40.832031 C 24.929688 41.566406 25.613281 42.242188 26.351562 42.03125 L 31.261719 40.625 C 31.433594 40.578125 31.578125 40.488281 31.691406 40.375 Z M 31.398438 40.082031 "/>
<use xlink:href="#image11" mask="url(#mask2)"/>
<path style="fill:none;stroke-width:3;stroke-linecap:round;stroke-linejoin:round;stroke:rgb(12.941177%,12.941177%,12.941177%);stroke-opacity:1;stroke-miterlimit:4;" d="M 211.679933 64.180339 C 211.679933 65.889017 212.062912 67.627155 213.005631 69.276913 L 239.460684 116.943144 C 243.4967 124.160836 253.925529 124.160836 257.961544 116.943144 L 284.387137 69.306373 C 285.329856 67.656615 285.742296 65.889017 285.742296 64.180339 Z M 211.679933 64.180339 " transform="matrix(0.0662976,0.0662976,-0.0662976,0.0662976,17.002382,17.175972)"/>
<path style="fill-rule:nonzero;fill:url(#linear3);stroke-width:11.338583;stroke-linecap:round;stroke-linejoin:round;stroke:rgb(12.941177%,12.941177%,12.941177%);stroke-opacity:1;stroke-miterlimit:4;" d="M 599.94274 415.078494 C 577.8976 415.078494 559.946557 433.029537 559.946557 455.074677 L 559.946557 815.040321 C 559.946557 837.242926 577.8976 855.193969 599.94274 855.193969 L 819.921744 855.193969 C 842.12435 855.193969 860.075392 837.242926 860.075392 815.040321 L 860.075392 455.074677 C 860.075392 433.029537 842.12435 415.078494 819.921744 415.078494 Z M 659.937014 495.070859 L 759.927471 495.070859 C 771.107506 495.070859 779.925562 504.046381 779.925562 515.068951 L 779.925562 755.046047 C 779.925562 766.226082 771.107506 775.044138 759.927471 775.044138 L 659.937014 775.044138 C 648.914444 775.044138 639.938923 766.226082 639.938923 755.046047 L 639.938923 515.068951 C 639.938923 504.046381 648.914444 495.070859 659.937014 495.070859 Z M 659.937014 495.070859 " transform="matrix(0.0248071,0,0,0.0248071,0,0)"/>
<path style="fill-rule:nonzero;fill:url(#linear4);stroke-width:3;stroke-linecap:round;stroke-linejoin:round;stroke:rgb(12.941177%,12.941177%,12.941177%);stroke-opacity:1;stroke-miterlimit:4;" d="M 259.308571 -105.177154 C 265.141347 -105.177154 269.890893 -100.427608 269.890893 -94.594831 L 269.890893 0.646073 C 269.890893 6.520513 265.141347 11.270059 259.308571 11.270059 C 253.434132 11.270059 248.726248 6.520513 248.726248 0.646073 L 248.726248 -94.594831 C 248.726248 -100.427608 253.434132 -105.177154 259.308571 -105.177154 Z M 259.308571 -105.177154 " transform="matrix(0.093759,0,0,0.093759,0,20.158175)"/>
</g>
</svg>
